X:1
T:Partition sans titre
C:Compositeur / Arrangeur
L:1/8
M:4/4
I:linebreak $
K:D
V:1 treble nm="Violon" snm="Vln."
V:1
"Em" EBBA B2 EB | B2 AB"D" dBAG | FDAD BDAD | FDAD dAFD |"Em" EBBA B2 EB | B2 AB"D" defg | %6
 afec dBAF |1 DEFD"Em" E2 D2 :|2 DEFD"Em" E2 gf |:"Em" eB B2 efge | eB B2 gedB |"D" A2 FA DAFA | %12
 A2 FA defg |"Em" eB B2 eBgB | eB B2"D" defg | afec dBAF |1 DEFD"Em" E2 gf :|2 DEFD"Em" E2 D2 |] %18
